X:449
T:Reel 449
M:4/4
K:Gmaj
L:1/8
dc|B>G (3GGG BGdc|B>G (3GGG Bdgd|B>A (3AGA cBAG||Bgef gedc:||2BcAF G2|d2|g2fg g2dg|g2ga b2ag|fgab c'aag|fgaf gfef|g2bg f2af|gfge fddg|bgaf gfed|egfa gdec|
